images/instagram-icon.svg

<!-- Generated by IcoMoon.io -->
<svg version="1.1" xmlns="http://www.w3.org/2000/svg" width="1024" height="1024" viewBox="0 0 1024 1024">
<g id="icomoon-ignore">
</g>
<path d="M512 328c-36.39 0-71.965 10.79-102.224 31.008-30.259 20.221-53.843 48.957-67.77 82.579-13.926 33.619-17.571 70.618-10.47 106.31s24.624 68.477 50.355 94.211c25.734 25.731 58.518 43.258 94.211 50.355 35.693 7.101 72.691 3.456 106.31-10.47 33.622-13.926 62.358-37.51 82.579-67.77 20.218-30.259 31.008-65.834 31.008-102.224 0-48.8-19.386-95.6-53.891-130.109-34.509-34.506-81.309-53.891-130.109-53.891zM512 648c-26.899 0-53.194-7.978-75.558-22.922-22.365-14.941-39.795-36.182-50.090-61.034s-12.986-52.195-7.738-78.576c5.248-26.384 18.198-50.614 37.219-69.635s43.251-31.974 69.635-37.219c26.381-5.248 53.725-2.557 78.576 7.738s46.093 27.725 61.034 50.090c14.944 22.365 22.922 48.659 22.922 75.558-0.106 36.038-14.467 70.566-39.949 96.051-25.485 25.482-60.013 39.843-96.051 39.949zM688 120h-352c-57.287 0-112.227 22.757-152.735 63.265s-63.265 95.448-63.265 152.735v352c0 57.286 22.757 112.227 63.265 152.736 40.508 40.506 95.448 63.264 152.735 63.264h352c57.286 0 112.227-22.758 152.736-63.264 40.506-40.509 63.264-95.45 63.264-152.736v-352c0-57.287-22.758-112.227-63.264-152.735-40.509-40.508-95.45-63.265-152.736-63.265zM856 688c0 44.557-17.699 87.286-49.206 118.794s-74.237 49.206-118.794 49.206h-352c-44.556 0-87.288-17.699-118.794-49.206s-49.206-74.237-49.206-118.794v-352c0-44.556 17.7-87.288 49.206-118.794s74.237-49.206 118.794-49.206h352c44.557 0 87.286 17.7 118.794 49.206s49.206 74.237 49.206 118.794v352zM760 304c0 7.911-2.346 15.645-6.742 22.224-4.394 6.576-10.64 11.702-17.949 14.73-7.312 3.030-15.354 3.821-23.114 2.278-7.757-1.542-14.886-5.354-20.48-10.947s-9.402-12.722-10.947-20.481c-1.542-7.759-0.752-15.802 2.278-23.111 3.027-7.309 8.154-13.556 14.73-17.952 6.579-4.395 14.314-6.741 22.224-6.741 10.608 0 20.784 4.214 28.285 11.716s11.715 17.676 11.715 28.284z"></path>
</svg>

<svg xmlns="http://www.w3.org/2000/svg" width="1024" height="1024"><path d="M512 328a184.002 184.002 0 0 0-169.994 113.587c-13.926 33.619-17.571 70.618-10.47 106.31s24.624 68.477 50.355 94.211a183.993 183.993 0 0 0 94.211 50.355 184.01 184.01 0 0 0 188.889-78.24 184.002 184.002 0 0 0-152.992-286.224zm0 320a135.998 135.998 0 0 1-75.558-22.922c-22.365-14.941-39.795-36.182-50.09-61.034s-12.986-52.195-7.738-78.576a135.99 135.99 0 0 1 106.854-106.854 135.991 135.991 0 0 1 139.61 57.828A136 136 0 0 1 648 512a136.407 136.407 0 0 1-39.949 96.051A136.407 136.407 0 0 1 512 648zm176-528H336a216 216 0 0 0-216 216v352a216.005 216.005 0 0 0 63.265 152.736A216.007 216.007 0 0 0 336 904h352a216.012 216.012 0 0 0 152.736-63.264A216.012 216.012 0 0 0 904 688V336a216.007 216.007 0 0 0-63.264-152.735A216.005 216.005 0 0 0 688 120zm168 568a167.999 167.999 0 0 1-168 168H336a167.997 167.997 0 0 1-168-168V336a168.001 168.001 0 0 1 168-168h352a168.003 168.003 0 0 1 168 168v352zm-96-384a40.002 40.002 0 0 1-68.285 28.285 39.992 39.992 0 0 1-8.669-43.592 40.01 40.01 0 0 1 14.73-17.952A40 40 0 0 1 760 304z"/></svg>
